file/allianz.svg

<svg clip-rule="evenodd" fill-rule="evenodd" stroke-linejoin="round" stroke-miterlimit="1.41421" viewBox="0 0 560 400" xmlns="http://www.w3.org/2000/svg"><g fill="#004a93"><path d="m211.565 69.441 2.034-.814c5.425-2.17 8.815-2.983 12.884-3.729 2.034-.271 4.747-.543 6.103-.543 6.781 0 8.815 2.238 8.815 8.476v1.763c-9.493 1.56-12.206 2.103-17.63 3.255-2.713.678-5.425 1.56-8.138 2.713-8.815 3.526-12.883 10.307-12.883 20.953 0 13.358 5.424 19.732 17.63 19.732 4.747 0 9.493-1.085 12.884-3.255 3.39-1.559 4.746-2.373 8.815-6.102v2.169c0 4.408 2.034 6.51 6.103 6.51h20.343v-7.255h-.678c-4.069 0-6.103-1.831-6.103-5.493v-34.651c0-18.037-6.103-24.14-23.734-24.14-6.102 0-11.527.678-16.952 1.967-5.425 1.288-8.137 2.238-14.24 5.425zm-160.03-43.127c6.103 0 8.815 1.831 10.171 7.527l24.412 86.728h-23.055l-6.781-22.852h-27.802l-6.781 22.852h-21.699l24.411-74.115c2.035-4.679 2.035-5.968 2.035-7.934 0-3.119-2.035-4.408-6.103-4.408h-2.713v-7.798zm56.282 0c4.746 0 7.459 2.374 7.459 6.917v87.338h-21.021v-81.1c0-3.661-2.034-5.357-6.103-5.357h-1.356v-7.798zm37.973 0c4.747 0 7.459 2.374 7.459 6.917v87.338h-21.021v-81.1c0-3.661-2.034-5.357-6.103-5.357h-1.356v-7.798zm38.651 23.666c4.069 0 6.781 2.577 6.781 6.984v63.605h-21.021v-57.366c0-3.866-1.356-5.561-5.425-5.561h-1.356v-7.662zm108.495 0c4.069 0 6.103 2.17 6.103 6.577v3.798c9.493-8.205 15.596-11.189 23.733-11.189 6.103 0 10.171 1.695 13.562 5.357 2.712 3.729 4.068 8.001 4.068 17.902v48.144h-21.02v-44.754c0-7.188-1.357-9.222-6.103-9.222-4.747 0-8.137 1.695-12.884 6.103v47.873h-21.021v-57.366c0-3.866-2.034-5.561-6.103-5.561h-.678v-7.662zm-51.535 36.345v14.105c-4.069 4.068-8.815 6.374-12.884 6.374-4.068 0-6.103-1.967-6.103-7.256 0-5.831 1.357-8.069 6.103-9.9 3.391-1.424 6.781-2.305 12.884-3.323zm-187.832-3.661-10.171-37.499-11.528 37.499zm138.331-48.009c0-6.239-4.746-9.9-12.205-9.9-8.138 0-12.206 3.661-12.206 9.9 0 6.374 4.068 10.103 12.206 10.103 7.459 0 12.205-3.729 12.205-10.103z" transform="matrix(.58728 0 0 .58728 106.17172064 155.00026256)"/><g transform="matrix(3.9823045704 0 0 -3.9823045704 -5696.441272 3188.3179064)"><path d="m1516.9 745.91h-4.6l4.4 6.28v2.14h-6.6c-.8 0-1.1-.32-1.1-1.09v-1.89h1.1v.21c0 .57.3.8.9.8h2.4l-4.5-6.28v-2.16h8" fill-rule="nonzero"/><path d="m1534.6 744.49v11.78c0 .95-.4 1.26-1.3 1.26h-2.7v-1.3h.3c.5 0 .7-.19.7-.77v-10.97zm1.6 0h2.9v8.89c0 .9-.4 1.26-1.3 1.26h-1.6zm-6.2 0v10.15h-1.6c-.9 0-1.3-.36-1.3-1.26v-8.89zm12.5 5.92c0-5.51-4-9.53-9.4-9.53s-9.4 4.02-9.4 9.53 4 9.53 9.4 9.53 9.4-4.02 9.4-9.53m1.9 0c0 6.45-4.8 11.29-11.3 11.29-6.4 0-11.3-4.84-11.3-11.29 0-6.47 4.9-11.31 11.3-11.31 6.5 0 11.3 4.84 11.3 11.31"/></g></g></svg>

<?xml version="1.0" encoding="UTF-8" standalone="no"?>
<!DOCTYPE svg PUBLIC "-//W3C//DTD SVG 1.1//EN" "http://www.w3.org/Graphics/SVG/1.1/DTD/svg11.dtd">
<svg width="100%" height="100%" viewBox="0 0 560 400" version="1.1" xmlns="http://www.w3.org/2000/svg" xmlns:xlink="http://www.w3.org/1999/xlink" xml:space="preserve" xmlns:serif="http://www.serif.com/" style="fill-rule:evenodd;clip-rule:evenodd;stroke-linejoin:round;stroke-miterlimit:1.41421;">
    <g transform="matrix(0.58728,0,0,0.58728,44.8961,75.2171)">
        <g id="path37627" transform="matrix(1,0,0,1,104.338,135.852)">
            <path d="M211.565,69.441L213.599,68.627C219.024,66.457 222.414,65.644 226.483,64.898C228.517,64.627 231.23,64.355 232.586,64.355C239.367,64.355 241.401,66.593 241.401,72.831L241.401,74.594C231.908,76.154 229.195,76.697 223.771,77.849C221.058,78.527 218.346,79.409 215.633,80.562C206.818,84.088 202.75,90.869 202.75,101.515C202.75,114.873 208.174,121.247 220.38,121.247C225.127,121.247 229.873,120.162 233.264,117.992C236.654,116.433 238.01,115.619 242.079,111.89L242.079,114.059C242.079,118.467 244.113,120.569 248.182,120.569L268.525,120.569L268.525,113.314L267.847,113.314C263.778,113.314 261.744,111.483 261.744,107.821L261.744,73.17C261.744,55.133 255.641,49.03 238.01,49.03C231.908,49.03 226.483,49.708 221.058,50.997C215.633,52.285 212.921,53.235 206.818,56.422L211.565,69.441ZM51.535,26.314C57.638,26.314 60.35,28.145 61.706,33.841L86.118,120.569L63.063,120.569L56.282,97.717L28.48,97.717L21.699,120.569L0,120.569L24.411,46.454C26.446,41.775 26.446,40.486 26.446,38.52C26.446,35.401 24.411,34.112 20.343,34.112L17.63,34.112L17.63,26.314L51.535,26.314ZM107.817,26.314C112.563,26.314 115.276,28.688 115.276,33.231L115.276,120.569L94.255,120.569L94.255,39.469C94.255,35.808 92.221,34.112 88.152,34.112L86.796,34.112L86.796,26.314L107.817,26.314ZM145.79,26.314C150.537,26.314 153.249,28.688 153.249,33.231L153.249,120.569L132.228,120.569L132.228,39.469C132.228,35.808 130.194,34.112 126.125,34.112L124.769,34.112L124.769,26.314L145.79,26.314ZM184.441,49.98C188.51,49.98 191.222,52.557 191.222,56.964L191.222,120.569L170.201,120.569L170.201,63.203C170.201,59.337 168.845,57.642 164.776,57.642L163.42,57.642L163.42,49.98L184.441,49.98ZM292.936,49.98C297.005,49.98 299.039,52.15 299.039,56.557L299.039,60.355C308.532,52.15 314.635,49.166 322.772,49.166C328.875,49.166 332.943,50.861 336.334,54.523C339.046,58.252 340.402,62.524 340.402,72.425L340.402,120.569L319.382,120.569L319.382,75.815C319.382,68.627 318.025,66.593 313.279,66.593C308.532,66.593 305.142,68.288 300.395,72.696L300.395,120.569L279.374,120.569L279.374,63.203C279.374,59.337 277.34,57.642 273.271,57.642L272.593,57.642L272.593,49.98L292.936,49.98ZM241.401,86.325L241.401,100.43C237.332,104.498 232.586,106.804 228.517,106.804C224.449,106.804 222.414,104.837 222.414,99.548C222.414,93.717 223.771,91.479 228.517,89.648C231.908,88.224 235.298,87.343 241.401,86.325ZM53.569,82.664L43.398,45.165L31.87,82.664L53.569,82.664ZM191.9,34.655C191.9,28.416 187.154,24.755 179.695,24.755C171.557,24.755 167.489,28.416 167.489,34.655C167.489,41.029 171.557,44.758 179.695,44.758C187.154,44.758 191.9,41.029 191.9,34.655Z" style="fill:rgb(0,74,147);"/>
        </g>
        <g id="g37643" transform="matrix(6.78093,0,0,-6.78093,-9776.15,5300.88)">
            <path id="path37645" d="M1516.9,745.91L1512.3,745.91L1516.7,752.19L1516.7,754.33L1510.1,754.33C1509.3,754.33 1509,754.01 1509,753.24L1509,751.35L1510.1,751.35L1510.1,751.56C1510.1,752.13 1510.4,752.36 1511,752.36L1513.4,752.36L1508.9,746.08L1508.9,743.92L1516.9,743.92" style="fill:rgb(0,74,147);fill-rule:nonzero;"/>
            <path id="path37647" d="M1534.6,744.49L1534.6,756.27C1534.6,757.22 1534.2,757.53 1533.3,757.53L1530.6,757.53L1530.6,756.23L1530.9,756.23C1531.4,756.23 1531.6,756.04 1531.6,755.46L1531.6,744.49L1534.6,744.49ZM1536.2,744.49L1539.1,744.49L1539.1,753.38C1539.1,754.28 1538.7,754.64 1537.8,754.64L1536.2,754.64L1536.2,744.49ZM1530,744.49L1530,754.64L1528.4,754.64C1527.5,754.64 1527.1,754.28 1527.1,753.38L1527.1,744.49L1530,744.49ZM1542.5,750.41C1542.5,744.9 1538.5,740.88 1533.1,740.88C1527.7,740.88 1523.7,744.9 1523.7,750.41C1523.7,755.92 1527.7,759.94 1533.1,759.94C1538.5,759.94 1542.5,755.92 1542.5,750.41M1544.4,750.41C1544.4,756.86 1539.6,761.7 1533.1,761.7C1526.7,761.7 1521.8,756.86 1521.8,750.41C1521.8,743.94 1526.7,739.1 1533.1,739.1C1539.6,739.1 1544.4,743.94 1544.4,750.41" style="fill:rgb(0,74,147);"/>
        </g>
    </g>
</svg>
